sites/OJJO/images/etsyiaconwhite.svg

<svg width="16" height="24" viewBox="0 0 16 24" fill="none" xmlns="http://www.w3.org/2000/svg">
<path d="M5.70932 5.63C5.70932 5.41333 5.73132 5.28333 6.10265 5.28333H11.0793C11.946 5.28333 12.426 6.02333 12.7727 7.412L13.0527 8.52267H13.8993C14.0527 5.37067 14.186 4 14.186 4C14.186 4 12.0553 4.24 10.7927 4.24H4.42665L1.01732 4.13067V5.044L2.16732 5.26133C2.97399 5.42133 3.16732 5.592 3.23399 6.332C3.23399 6.332 3.30732 8.512 3.30732 12.092C3.30732 15.682 3.24732 17.832 3.24732 17.832C3.24732 18.4807 2.98732 18.7207 2.18732 18.8807L1.03932 19.1007V20L4.45932 19.89H10.1593C11.4493 19.89 14.4193 20 14.4193 20C14.4893 19.22 14.9193 15.68 14.9893 15.2907H14.1893L13.3333 17.2307C12.6633 18.7507 11.6827 18.8607 10.5933 18.8607H7.32265C6.23599 18.8607 5.71265 18.434 5.71265 17.494V12.5333C5.71265 12.5333 8.12599 12.5333 8.90598 12.5973C9.51398 12.64 9.88132 12.814 10.0793 13.6627L10.3393 14.7927H11.2793L11.2193 11.9407L11.3473 9.07067H10.42L10.12 10.3307C9.93132 11.16 9.79998 11.3107 8.95065 11.3973C7.83998 11.5107 5.74065 11.4907 5.74065 11.4907V5.63333H5.70732L5.70932 5.63Z" fill="white"/>
</svg>

<svg width="16" height="24" fill="none" xmlns="http://www.w3.org/2000/svg"><path d="M5.71 5.63c0-.217.021-.347.393-.347h4.976c.867 0 1.347.74 1.694 2.129l.28 1.11h.846c.154-3.151.287-4.522.287-4.522s-2.13.24-3.393.24H4.427l-3.41-.11v.914l1.15.217c.807.16 1 .331 1.067 1.071 0 0 .073 2.18.073 5.76 0 3.59-.06 5.74-.06 5.74 0 .649-.26.889-1.06 1.049l-1.148.22V20l3.42-.11h5.7c1.29 0 4.26.11 4.26.11.07-.78.5-4.32.57-4.71h-.8l-.856 1.94c-.67 1.52-1.65 1.63-2.74 1.63h-3.27c-1.087 0-1.61-.426-1.61-1.366v-4.96s2.413 0 3.193.063c.608.043.975.217 1.173 1.066l.26 1.13h.94l-.06-2.852.128-2.87h-.927l-.3 1.26c-.189.829-.32.98-1.17 1.066-1.11.114-3.21.094-3.21.094V5.633h-.033l.002-.003Z" fill="#fff"/></svg>
